X:1
T:Song 13 (Gibbons), 77.77
T:Song 13 (Gibbons), 77.77
T:Orlando Gibbons, 1623
T:Public Domain Courtesy of the Cyber Hymnal™
C:Orlando Gibbons, 1623
Z:Public Domain
Z:Courtesy of the Cyber Hymnal™
%%score ( 1 2 ) ( 3 4 )
L:1/8
Q:1/4=115
M:none
K:D
V:1 treble 
V:2 treble 
V:3 bass 
V:4 bass 
V:1
 [DF]4 [DG]2 | [CA]2 [DB]2 E3 z E | [DF]6 [DA]4 [DB]2 | [Cc]2 [Fd]2 B2 z x3 | [CA]6 [DF]4 [DG]2 | %5
 [CA]2 [B,B]2 G2 F2 | [CE]6 [DA]4 (GF) | [CE]2 (DE/F/) [DE]2 [CE]2 x | D6 |] %9
V:2
 x6 | x4 D2 C2 x | x12 | x4 E3 (B2 D) | x12 | x4 (=CB,) (A,D) | x10 D2 | x2 D2 x5 | D6 |] %9
V:3
 [D,A,]4 [B,,D,]2 | [A,,E,]2 (G,F,) [A,,E,]2 [A,,A,]2 x | [D,A,]6 [D,F,]4 [B,,^G,]2 | %3
 [A,,A,]2 [D,A,]2 [E,A,]2 [E,^G,]2 x2 | [A,,A,]6 [D,A,]4 (D,E,) | %5
 [A,,F,]2 [G,,G,]2 [=C,E,]2 (F,G,) | [A,,A,]6 [F,,A,]4 [G,,B,]2 | [A,,E,]2 [F,,A,]2 A,3 z G, | %8
 [D,F,]6 |] %9
V:4
 x6 | x2 G,,2 x5 | x12 | x10 | x10 B,,2 | x6 D,2 | x12 | x4 A,,2 A,,2 x | x6 |] %9

